X:1
T:9 Lieder und Gesänge, Op.63
T:Heimweh III
T:9. Heimweh III
T:Johannes Brahms
T:Klaus Groth
T:9 Lieder und Gesänge, Op.63
T:Creative Commons copyright waiver (CC0 1.0 Universal) 
T:Creative Commons copyright waiver (CC0 1.0 Universal) 
T:Creative Commons copyright waiver (CC0 1.0 Universal) 
T:Creative Commons copyright waiver (CC0 1.0 Universal) 
C:Johannes Brahms
Z:Klaus Groth
Z:Creative Commons copyright waiver (CC0 1.0 Universal)
Z:
L:1/8
M:2/4
K:A
V:1 treble nm="Singstimme\nVoice"
V:1
 z4 | z2 z E | c3/2 c/ e3/2 e/ | (d/c/) (B/A/) G z/ e/ | (d/c/) (B/A/) G z/ A/ | B3/2 F/ G z/ E/ | %6
w: |Ich|sah als Kna- be|Blu- * men * blühn \_ ich|weiss * nicht * mehr, was|war es doch? Ich|
 B3/2 B/ d3/2 d/ | (d/c/) (B/^A/) B z/ d/ | d3/2 A/ d3/2 A/ | B2 z d | (c2- c/^A/) (c/f/) | %11
w: sah die Son- ne|drü- * ber * glühn \_ mich|dünkt, ich seh es|noch, mich|dünkt, _ _ ich *|
 (e2- e/d/) (B/G/) | A2 z2 | z2 z e | e d B d | d =c A z/ c/ | =c3/2 B/ (^G/A/) (c/e/) | %17
w: seh _ _ es *|noch.|Es|war ein Duft, es|war ein Glanz, die|See- le sog _ ihn _|
 (^f>^d) (B>A) | ^G2 z B | =c3/2 c/ c3/2 c/ | =c3/2 e/ d z/!f! =f/ | =e3/2 =f/ e3/2 f/ | e3!p! d | %23
w: dur- * stend _|ein. Ich|pflück- te sie zu|ei- nem Kranz \- wo|mag er blie- ben|sein? wo|
 (^c2- c/^A/) (c/^f/) | (e2- e/d/) (B/G/) | A2 z2 | z2 z z/ E/ | c3/2 c/ e3/2 e/ | %28
w: mag _ _ er _|blie- * * ben *|sein?|ich|such an je- dem|
 (d/c/) (B/A/) G z/ e/ | (d/c/) (B/A/) G d | c =c B3/2 F/ | G2 z z/ E/ | B3/2 B/ d3/2 d/ | %33
w: Blüm- * chen * nach um|je- * nen * Schmelz, um|je- nes, je- nes|Licht, ich|for- sche je- den|
 (d/c/) (B/^A/) B z/ d/ | d3/2 A/ d3/2 A/ | B2 z d | (c2- c/^A/) (c/f/) | (e2- e/d/) (B/G/) | %38
w: Som- * mer- * tag, doch|sol- che find ich|nicht, doch|sol- * * che *|find _ _ ich _|
 A2 z2 | z2 z e | e d B =G | d =c A z/ =F/ | =c3/2 B/ (^G/A/) (c/e/) | (^f>^d) (B>A) | ^G2 z B | %45
w: nicht.|Ihr|wuss- tet nim- mer,|was ich trieb? ich|such- te mei- * nen *|al- * ten _|Kranz. Er|
 e3/2 e/ =g3/2 g/ | (=f/e/) (d/=c/) B z/ f/ | e3/2 =f/ e3/2 f/ |!>(! e3!>)!!p! d | %49
w: war so frisch, so|licht, * so _ lieb \_ es|war der Ju- gend-|glanz, es|
 (^c2- c/^A/) (c/^f/) | (e2- e/d/) (B/G/) | A2 z2 | z4 | z4 | z4 | z4 | z4 |] %57
w: war _ _ der *|Ju- * * gend- *|glanz.||||||

